src/4-icons/speak.svg

<svg width="260" height="260" viewBox="0 0 260 260" fill="none" xmlns="http://www.w3.org/2000/svg">
<g opacity="0.9">
<path fill-rule="evenodd" clip-rule="evenodd" d="M176.562 136.226C176.562 162.094 155.711 183.074 130.002 183.074C104.294 183.039 83.4431 162.094 83.4431 136.191V46.8478C83.4431 20.98 104.294 0 130.002 0C155.711 0 176.562 20.98 176.562 46.8478V136.226ZM107.095 23.8344C101.244 29.7215 97.6271 37.8206 97.6271 46.8478V136.191C97.6271 145.217 101.209 153.316 107.095 159.239C112.98 165.126 121.031 168.765 130.001 168.765C138.971 168.765 147.02 165.163 152.907 159.239C158.758 153.317 162.375 145.218 162.375 136.191V46.8478C162.375 37.8568 158.794 29.7564 152.907 23.8344C147.022 17.9472 138.971 14.3082 130.001 14.3082C121.031 14.3082 112.98 17.9124 107.095 23.8344Z" fill="black"/>
<path d="M61.4576 175.652C58.1596 169.337 56.2813 162.986 55.82 157.028L55.8159 157.032C55.4613 152.357 55.2479 145.079 55.1773 136.623C55.0346 128.275 55 118.891 55 110.327C55 102.219 55.0308 94.8201 55.0593 89.7095C55.0812 85.7854 58.2911 82.6368 62.2151 82.6765C66.1262 82.7161 69.2676 85.912 69.2422 89.8232C69.1993 96.4139 69.1494 105.167 69.1494 110.329C69.1494 118.892 69.1854 128.204 69.292 136.446C69.3987 144.689 69.6106 151.896 69.9306 155.892C70.1785 159.567 71.4903 164.204 73.9725 168.986C76.4547 173.768 80.142 178.69 85.0357 183.079C94.8579 191.857 109.575 198.744 130.709 198.778C135.886 198.778 142.73 198.493 149.893 197.137C157.021 195.779 164.396 193.354 170.708 189.322C174.928 186.61 178.652 183.256 181.736 178.867C185.814 173.051 188.828 165.416 189.715 154.784C190.14 149.645 190.424 141.367 190.601 132.34C190.78 123.278 190.815 113.43 190.815 104.903C190.815 100.937 190.787 94.7219 190.757 89.656C190.735 85.7387 193.882 82.5348 197.799 82.4952C201.718 82.4555 204.926 85.5958 204.951 89.5149C204.976 93.494 205 98.8676 205 104.902C205 113.5 204.964 123.419 204.787 132.588C204.608 141.793 204.36 150.177 203.864 155.993C202.8 168.767 198.97 179.114 193.333 187.142C187.695 195.17 180.355 200.772 172.695 204.589C160.248 210.762 147.058 212.439 137.093 212.903V245.728H194.069C198.01 245.728 201.205 248.923 201.205 252.864C201.205 256.805 198.01 260 194.069 260H65.898C61.957 260 58.7621 256.805 58.7621 252.864C58.7621 248.923 61.957 245.728 65.898 245.728H122.945V212.759C108.229 211.654 95.9244 207.48 86.0663 201.485C74.5072 194.455 66.386 185.107 61.4576 175.652Z" fill="black"/>
</g>
</svg>

<svg width="260" height="260" viewBox="0 0 260 260" fill="none" xmlns="http://www.w3.org/2000/svg"><g opacity=".9" fill="#000"><path fill-rule="evenodd" clip-rule="evenodd" d="M176.562 136.226c0 25.868-20.851 46.848-46.56 46.848-25.708-.035-46.559-20.98-46.559-46.883V46.848C83.443 20.98 104.294 0 130.002 0c25.709 0 46.56 20.98 46.56 46.848v89.378ZM107.095 23.834c-5.851 5.887-9.468 13.987-9.468 23.014v89.343c0 9.026 3.582 17.125 9.468 23.048 5.885 5.887 13.936 9.526 22.906 9.526 8.97 0 17.019-3.602 22.906-9.526 5.851-5.922 9.468-14.021 9.468-23.048V46.848c0-8.991-3.581-17.092-9.468-23.014-5.885-5.887-13.936-9.526-22.906-9.526-8.97 0-17.021 3.604-22.906 9.526Z"/><path d="M61.458 175.652c-3.298-6.315-5.177-12.666-5.638-18.624l-.004.004c-.355-4.675-.568-11.953-.639-20.409-.142-8.348-.177-17.732-.177-26.296 0-8.108.03-15.507.06-20.617.021-3.925 3.231-7.073 7.155-7.033a7.1 7.1 0 0 1 7.027 7.146c-.043 6.59-.093 15.344-.093 20.506 0 8.563.036 17.875.143 26.117.107 8.243.319 15.45.639 19.446.248 3.675 1.56 8.312 4.041 13.094 2.483 4.782 6.17 9.704 11.064 14.093 9.822 8.778 24.539 15.665 45.673 15.699 5.177 0 12.021-.285 19.184-1.641 7.128-1.358 14.503-3.783 20.815-7.815 4.22-2.712 7.944-6.066 11.028-10.455 4.078-5.816 7.092-13.451 7.979-24.083.425-5.139.709-13.417.886-22.444.179-9.062.214-18.91.214-27.437 0-3.966-.028-10.181-.058-15.247-.022-3.917 3.125-7.121 7.042-7.16 3.919-.04 7.127 3.1 7.152 7.019.025 3.979.049 9.353.049 15.387 0 8.598-.036 18.517-.213 27.686-.179 9.205-.427 17.589-.923 23.405-1.064 12.774-4.894 23.121-10.531 31.149-5.638 8.028-12.978 13.63-20.638 17.447-12.447 6.173-25.637 7.85-35.602 8.314v32.825h56.976a7.136 7.136 0 0 1 0 14.272H65.898a7.136 7.136 0 0 1 0-14.272h57.047v-32.969c-14.716-1.105-27.02-5.279-36.879-11.274-11.559-7.03-19.68-16.378-24.608-25.833Z"/></g></svg>
